X:1
T: Castle Kelly
M: 4/4
L: 1/8
K: Am
(EG)||(A2c)(A2 B)cA|GcEG- G2EG|(A2c)A GAc(d|1 &quot;4&quot;e)(cd)(B cA)AG:|2 &quot;4&quot;e)(cd)(B cA)A2||
|:(ag)ec dfe(d|cA)GE (EG2)g|agec (cd)cd|uea{b}ag (ga)ba|
vgedc dfe(d|cA)GE (EG)EG|uA2cA GAc(d|1 &quot;4&quot;e)(cd)(B cA)A2:|2 &quot;4&quot;e)(cd)(B cA)AG||
